!!!!SEGMENT: d-b--mus-ms-19600-1--001-005_scacchi-marco--missa-omnium-tonorum-pro-electione-regis-poloniae-casimiri-benedictus.krn
!!!cenid: 16xx:1772
!!!COM: Scacchi, Marco
!!!COM-rismID: pe30013433
!!!CDT: ~1605-1662
!!!CNT: Italian
!!!OPR: Missa omnium tonorum pro electione Regis Poloniae Casimiri
!!!OTL: Benedictus
!!!OMV: 005
!!!PDT:
!!!AGN:
!!!SMS-siglum: D-B
!!!SMS-shelfmark: Mus.ms. 19600/1
!!!SMS-shelfwork: 001-005 M
!!!SMS-variant:
!!!SMS-altvar:
!!!NIFC-rismSourceID: 452507522
!!!NIFC-rismChildID: 452507522
!!!NIFC-islandoraID: none
!!!URL-pdf-islandora:
!!!URL-scan: https://digital.staatsbibliothek-berlin.de/werkansicht?PPN=PPN73488298X&PHYSID=PHYS_0003&DMDID= @EN{Scan on Staatsbibliothek zu Berlin Website} @PL{Skany w portalu Staatsbibliothek zu Berlin}
!!!IIIF:
!!!ONB-nifc: UWAGA: Benedictus na s. 90-94. Części Mszy: 1. Kyrie, 2. Et in terra, 3. Patrem, 4. Sanctus, 5. Benedictus, 6. Agnus Dei
!!!AIN: 3 alto 3 bass 1 fagot 1 organ 4 soprn 3 tenor 3 viola 2 violn
!!!key: C
**kern	**fbb	**kern	**kern	**kern	**text	**kern	**text	**kern	**kern	**kern	**kern	**text	**kern	**kern	**text	**kern	**kern	**text	**kern	**text	**kern	**kern	**kern	**kern	**kern	**kern
*	*	*group4	*group4	*group4	*	*group4	*	*group3	*group3	*group3	*group3	*	*group2	*group2	*	*group2	*group2	*	*group2	*	*group1	*group1	*group1	*group1	*group1	*group1
*	*	*	*	*	*	*I""Coro ripieno	*	*	*	*	*I""Coro Secondo.	*	*	*	*	*	*	*	*I""Coro primo.	*	*	*	*	*	*	*
*part20	*	*part19	*part18	*part17	*part17	*part16	*part16	*part15	*part14	*part13	*part12	*part12	*part11	*part10	*part10	*part9	*part8	*part8	*part7	*part7	*part6	*part5	*part4	*part3	*part2	*part1
*staff20	*	*staff19	*staff18	*staff17	*staff17	*staff16	*staff16	*staff15	*staff14	*staff13	*staff12	*staff12	*staff11	*staff10	*staff10	*staff9	*staff8	*staff8	*staff7	*staff7	*staff6	*staff5	*staff4	*staff3	*staff2	*staff1
*I"Continuo	*	*I"	*I"	*I"	*	*I"	*	*I"	*I"	*I"	*I"	*	*I"	*I"	*	*I"	*I"	*	*I"	*	*I"Fagotto	*I"Viola 3.	*I"Viola 2	*I"Viola 1.	*I"Violino 2.	*I"Violino I.
*I'	*	*I'	*I'	*I'	*	*I'	*	*I'	*I'	*I'	*I'	*	*I'	*I'	*	*I'	*I'	*	*I'	*	*I'	*I'	*I'	*I'	*I'	*I'
*IGcont	*	*IGcoro	*IGcoro	*IGcoro	*	*IGcoro	*	*IGcoro	*IGcoro	*IGcoro	*IGcoro	*	*IGcoro	*IGcoro	*	*IGcoro	*IGcoro	*	*IGcoro	*	*	*	*	*	*	*
*ICklav	*	*ICvox	*ICvox	*ICvox	*	*ICvox	*	*ICvox	*ICvox	*ICvox	*ICvox	*	*ICvox	*ICvox	*	*ICvox	*ICvox	*	*ICvox	*	*ICww	*ICstr	*ICstr	*ICstr	*ICstr	*ICstr
*Iorgan	*	*Ibass	*Itenor	*Ialto	*	*Isoprn	*	*Ibass	*Itenor	*Ialto	*Isoprn	*	*Ibass	*Itenor	*	*Ialto	*Isoprn	*	*Isoprn	*	*Ifagot	*Iviola	*Iviola	*Iviola	*Ivioln	*Ivioln
*clefF4	*	*clefF4	*clefC4	*clefC3	*	*clefC1	*	*clefF4	*clefC4	*clefC3	*clefC1	*	*clefF4	*clefC4	*	*clefC3	*clefC1	*	*clefC1	*	*clefF4	*clefC4	*clefC3	*clefC3	*clefG2	*clefG2
*k[]	*	*k[]	*k[]	*k[]	*	*k[]	*	*k[]	*k[]	*k[]	*k[]	*	*k[]	*k[]	*	*k[]	*k[]	*	*k[]	*	*k[]	*k[]	*k[]	*k[]	*k[]	*k[]
*C:	*	*C:	*C:	*C:	*	*C:	*	*C:	*C:	*C:	*C:	*	*C:	*C:	*	*C:	*C:	*	*C:	*	*C:	*C:	*C:	*C:	*C:	*C:
*2/1	*	*2/1	*2/1	*2/1	*	*2/1	*	*2/1	*2/1	*2/1	*2/1	*	*2/1	*2/1	*	*2/1	*2/1	*	*2/1	*	*2/1	*2/1	*2/1	*2/1	*2/1	*2/1
*met(C|)	*	*met(C|)	*met(C|)	*met(C|)	*	*met(C|)	*	*met(C|)	*met(C|)	*met(C|)	*met(C|)	*	*met(C|)	*met(C|)	*	*met(C|)	*met(C|)	*	*met(C|)	*	*met(C|)	*met(C|)	*met(C|)	*met(C|)	*met(C|)	*met(C|)
*all\right	*	*all\right	*all\right	*all\right	*	*all\right	*	*all\right	*all\right	*all\right	*all\right	*	*all\right	*all\right	*	*all\right	*all\right	*	*all\right	*	*all\right	*all\right	*all\right	*all\right	*all\right	*all\right
*2\right	*	*2\right	*2\right	*2\right	*	*2\right	*	*2\right	*2\right	*2\right	*2\right	*	*2\right	*2\right	*	*2\right	*2\right	*	*2\right	*	*2\right	*2\right	*2\right	*2\right	*2\right	*2\right
=1	=1	=1	=1	=1	=1	=1	=1	=1	=1	=1	=1	=1	=1	=1	=1	=1	=1	=1	=1	=1	=1	=1	=1	=1	=1	=1
!!LO:TX:b:t=Undecimi Toni
4r	.	0r	0r	0r	.	0r	.	0r	0r	0r	0r	.	0r	4r	.	0r	0r	.	0r	.	0r	0r	0r	0r	0r	0r
4AA/	.	.	.	.	.	.	.	.	.	.	.	.	.	2A\	Be-	.	.	.	.	.	.	.	.	.	.	.
2F\	.	.	.	.	.	.	.	.	.	.	.	.	.	.	.	.	.	.	.	.	.	.	.	.	.	.
.	.	.	.	.	.	.	.	.	.	.	.	.	.	4A\	-ne-	.	.	.	.	.	.	.	.	.	.	.
2D\	6 5	.	.	.	.	.	.	.	.	.	.	.	.	2.A\	-di-	.	.	.	.	.	.	.	.	.	.	.
2E\	4:#	.	.	.	.	.	.	.	.	.	.	.	.	.	.	.	.	.	.	.	.	.	.	.	.	.
!	!	!	!	!	!	!	!	!	!	!	!	!	!	!LO:SIC:v:s=4G#\	!	!	!	!	!	!	!	!	!	!	!	!
.	.	.	.	.	.	.	.	.	.	.	.	.	.	4A#X\	.	.	.	.	.	.	.	.	.	.	.	.
!!pagebreak:original
=2	=2	=2	=2	=2	=2	=2	=2	=2	=2	=2	=2	=2	=2	=2	=2	=2	=2	=2	=2	=2	=2	=2	=2	=2	=2	=2
2AA/	.	0r	0r	0r	.	0r	.	0r	0r	0r	0r	.	0r	2A\	-ctus	0r	0r	.	0r	.	0r	0r	0r	0r	0r	0r
*	*	*	*	*	*	*	*	*	*	*	*	*	*	*	*ij	*	*	*	*	*	*	*	*	*	*	*
4E\	6	.	.	.	.	.	.	.	.	.	.	.	.	2.c\	Be-	.	.	.	.	.	.	.	.	.	.	.
4F\	6 5	.	.	.	.	.	.	.	.	.	.	.	.	.	.	.	.	.	.	.	.	.	.	.	.	.
1G	4:3	.	.	.	.	.	.	.	.	.	.	.	.	.	.	.	.	.	.	.	.	.	.	.	.	.
.	.	.	.	.	.	.	.	.	.	.	.	.	.	4c\	-ne-	.	.	.	.	.	.	.	.	.	.	.
.	.	.	.	.	.	.	.	.	.	.	.	.	.	(4.c\	-di-	.	.	.	.	.	.	.	.	.	.	.
.	.	.	.	.	.	.	.	.	.	.	.	.	.	8B\)	.	.	.	.	.	.	.	.	.	.	.	.
=3	=3	=3	=3	=3	=3	=3	=3	=3	=3	=3	=3	=3	=3	=3	=3	=3	=3	=3	=3	=3	=3	=3	=3	=3	=3	=3
4C/	.	0r	0r	0r	.	0r	.	0r	0r	0r	0r	.	0r	4c\	-ctus	0r	0r	.	0r	.	0r	0r	0r	0r	0r	0r
*	*	*	*	*	*	*	*	*	*	*	*	*	*	*	*Xij	*	*	*	*	*	*	*	*	*	*	*
4F\	.	.	.	.	.	.	.	.	.	.	.	.	.	4c\	qui	.	.	.	.	.	.	.	.	.	.	.
2F\	6	.	.	.	.	.	.	.	.	.	.	.	.	2d\	ve-	.	.	.	.	.	.	.	.	.	.	.
1G	.	.	.	.	.	.	.	.	.	.	.	.	.	4d\	-nit,	.	.	.	.	.	.	.	.	.	.	.
.	.	.	.	.	.	.	.	.	.	.	.	.	.	4d\	qui	.	.	.	.	.	.	.	.	.	.	.
.	.	.	.	.	.	.	.	.	.	.	.	.	.	[2e\	ve-	.	.	.	.	.	.	.	.	.	.	.
=4	=4	=4	=4	=4	=4	=4	=4	=4	=4	=4	=4	=4	=4	=4	=4	=4	=4	=4	=4	=4	=4	=4	=4	=4	=4	=4
1F	.	0r	0r	0r	.	0r	.	0r	0r	0r	0r	.	0r	4e\]	.	0r	0r	.	0r	.	0r	0r	0r	0r	0r	0r
.	.	.	.	.	.	.	.	.	.	.	.	.	.	8d\	-nit	.	.	.	.	.	.	.	.	.	.	.
.	.	.	.	.	.	.	.	.	.	.	.	.	.	8c\	in	.	.	.	.	.	.	.	.	.	.	.
.	.	.	.	.	.	.	.	.	.	.	.	.	.	1d	no-	.	.	.	.	.	.	.	.	.	.	.
1E	.	.	.	.	.	.	.	.	.	.	.	.	.	.	.	.	.	.	.	.	.	.	.	.	.	.
.	.	.	.	.	.	.	.	.	.	.	.	.	.	4c\	-mi-	.	.	.	.	.	.	.	.	.	.	.
.	.	.	.	.	.	.	.	.	.	.	.	.	.	4c\	-ne	.	.	.	.	.	.	.	.	.	.	.
=5	=5	=5	=5	=5	=5	=5	=5	=5	=5	=5	=5	=5	=5	=5	=5	=5	=5	=5	=5	=5	=5	=5	=5	=5	=5	=5
!	!	!	!	!	!	!	!	!	!	!	!	!	!	!	!	!	!	!	!	!	!LO:N:vis=0	!LO:N:vis=0	!LO:N:vis=0	!LO:N:vis=0	!LO:N:vis=0	!LO:N:vis=2
1E	7 3:6 4	0r	0r	0r	.	0r	.	0r	0r	0r	0r	.	0r	2.B\	Do-	0r	0r	.	0r	.	1r	1r	1r	1r	1r	1r
.	.	.	.	.	.	.	.	.	.	.	.	.	.	4B\	-mi-	.	.	.	.	.	.	.	.	.	.	.
!	!	!	!	!	!	!	!	!	!	!	!	!	!	!	!	!	!	!	!	!	!	!	!	!LO:SIC:v:s=8e\	!	!
2AA/	.	.	.	.	.	.	.	.	.	.	.	.	.	2A\	-ni	.	.	.	.	.	2AA\	8A\	8c\	8f\	8ccc\	8aa\
.	.	.	.	.	.	.	.	.	.	.	.	.	.	.	.	.	.	.	.	.	.	4A\	4c\	4e\	4aa\	4ee\
.	.	.	.	.	.	.	.	.	.	.	.	.	.	.	.	.	.	.	.	.	.	8A\	8c\	8e\	8ccc\	8aa\
2E\	.	.	.	.	.	.	.	.	.	.	.	.	.	2r	.	.	.	.	.	.	2E\	8B\	8e\	8g\	8bb\	8gg\
.	.	.	.	.	.	.	.	.	.	.	.	.	.	.	.	.	.	.	.	.	.	4B\	4e\	4g\	4gg\	4ee\
.	.	.	.	.	.	.	.	.	.	.	.	.	.	.	.	.	.	.	.	.	.	8e\	8e\	8e\	8bb\	8gg\
=6	=6	=6	=6	=6	=6	=6	=6	=6	=6	=6	=6	=6	=6	=6	=6	=6	=6	=6	=6	=6	=6	=6	=6	=6	=6	=6
2F\	5 3	0r	0r	0r	.	0r	.	0r	0r	0r	0r	.	0r	0r	.	0r	0r	.	0r	.	2F\	2A\	2c\	4a\	8aa\	8ff\
.	.	.	.	.	.	.	.	.	.	.	.	.	.	.	.	.	.	.	.	.	.	.	.	.	4ff\	4aa\
.	.	.	.	.	.	.	.	.	.	.	.	.	.	.	.	.	.	.	.	.	.	.	.	4f\	.	.
.	.	.	.	.	.	.	.	.	.	.	.	.	.	.	.	.	.	.	.	.	.	.	.	.	8aa\	8ff\
2C\	.	.	.	.	.	.	.	.	.	.	.	.	.	.	.	.	.	.	.	.	2C\	2c\	2e\	2g\	8gg\	8ee\
.	.	.	.	.	.	.	.	.	.	.	.	.	.	.	.	.	.	.	.	.	.	.	.	.	4ee\	4cc\
.	.	.	.	.	.	.	.	.	.	.	.	.	.	.	.	.	.	.	.	.	.	.	.	.	8gg\	8ee\
4G\	.	.	.	.	.	.	.	.	.	.	.	.	.	.	.	.	.	.	.	.	4G\	4B\	4g\	4g\	4b\	4dd\
8E\	.	.	.	.	.	.	.	.	.	.	.	.	.	.	.	.	.	.	.	.	8E\	8e\	8g\	8g\	8cc\	8gg\
4F\	.	.	.	.	.	.	.	.	.	.	.	.	.	.	.	.	.	.	.	.	4F\	4A\	4c\	4a\	4cc\	4ff\
8A\	.	.	.	.	.	.	.	.	.	.	.	.	.	.	.	.	.	.	.	.	8A\	8c\	8c\	8e\	8cc\	8cc\
4G\	.	.	.	.	.	.	.	.	.	.	.	.	.	.	.	.	.	.	.	.	4G\	4G\	4g\	4g\	4b\	4dd\
!!pagebreak:original
=7	=7	=7	=7	=7	=7	=7	=7	=7	=7	=7	=7	=7	=7	=7	=7	=7	=7	=7	=7	=7	=7	=7	=7	=7	=7	=7
2C\	.	0r	0r	0r	.	0r	.	8C/	8c\	8g\	8ee\	O-	1r	1r	.	1r	1r	.	1r	.	2C/	2c\	2e\	2g\	2cc\	2ee\
.	.	.	.	.	.	.	.	4C/	4G/	4e\	4cc\	-san-	.	.	.	.	.	.	.	.	.	.	.	.	.	.
.	.	.	.	.	.	.	.	8C/	8G/	8g\	8ee\	-na	.	.	.	.	.	.	.	.	.	.	.	.	.	.
*	*	*	*	*	*	*	*	*	*	*	*	*ij	*	*	*	*	*	*	*	*	*	*	*	*	*	*
!	!	!	!	!	!	!	!	!	!	!	!	!	!	!	!	!	!	!	!	!	!	!	!LO:SIC:v:s=2d\	!	!	!
2G\	.	.	.	.	.	.	.	2G\	8B\	8g\	8dd\	O-	.	.	.	.	.	.	.	.	2G\	2G\	2c\	2g\	2dd\	2gg\
.	.	.	.	.	.	.	.	.	4G\	4g\	4b\	-san-	.	.	.	.	.	.	.	.	.	.	.	.	.	.
.	.	.	.	.	.	.	.	.	8B\	8g\	8dd\	-na	.	.	.	.	.	.	.	.	.	.	.	.	.	.
*	*	*	*	*	*	*	*	*	*	*	*	*Xij	*	*	*	*	*	*	*	*	*	*	*	*	*	*
!	!	!	!	!	!	!	!	!	!	!	!	!	!	!	!	!	!LO:TX:a:t=col 1mo	!	!	!	!	!	!	!	!	!
2A\	.	.	.	.	.	.	.	2A\	8A\	2f\	8cc\	in	8A\	8e\	.	8a\	8cc\yy	O-	8cc\	O-	1r	1r	1r	1r	1r	1r
.	.	.	.	.	.	.	.	.	8A\	.	8cc\	ex-	4A\	4c\	.	4f\	4a\yy	-san-	4a\	-san-	.	.	.	.	.	.
.	.	.	.	.	.	.	.	.	4c\	.	4cc\	-cel-	.	.	.	.	.	.	.	.	.	.	.	.	.	.
.	.	.	.	.	.	.	.	.	.	.	.	.	8A\	8e\	.	8a\	8cc\yy	-na	8cc\	-na	.	.	.	.	.	.
*	*	*	*	*	*	*	*	*	*	*	*	*	*	*	*	*	*	*ij	*	*ij	*	*	*	*	*	*
2E\	.	.	.	.	.	.	.	(2E\	2e\	2g\	2b\	-sis	8E\	8e\	.	8g\	8b\yy	O-	8b\	O-	.	.	.	.	.	.
.	.	.	.	.	.	.	.	.	.	.	.	.	4E\	4e\	.	4e\	4g\yy	-san-	4g\	-san-	.	.	.	.	.	.
.	.	.	.	.	.	.	.	.	.	.	.	.	8E\	8e\	.	8g\	8b\yy	-na	8b\	-na	.	.	.	.	.	.
*	*	*	*	*	*	*	*	*	*	*	*	*	*	*	*	*	*	*Xij	*	*Xij	*	*	*	*	*	*
=8	=8	=8	=8	=8	=8	=8	=8	=8	=8	=8	=8	=8	=8	=8	=8	=8	=8	=8	=8	=8	=8	=8	=8	=8	=8	=8
2F\	.	8F\	8c\	8f\	.	8a\	O-	2F\)	4.c\	2f\	8a\	.	4.F\	4.c\	.	4.f\	4.a\yy	in	4.a\	in	2F\	8A\	8c\	8f\	8ff\	8aa\
.	.	4F\	4c\	4f\	.	4a\	-san-	.	.	.	4a\	.	.	.	.	.	.	.	.	.	.	4A\	4c\	4f\	4aa\	4ff\
.	.	8F\	8c\	8f\	.	8a\	-na	.	8c\	.	8a\	.	8F\	8c\	.	8f\	8a\yy	ex-	8a\	ex-	.	8A\	8c\	8f\	8ff\	8aa\
*	*	*	*	*	*	*	*ij	*	*	*	*	*	*	*	*	*	*	*	*	*	*	*	*	*	*	*
2C\	.	8C/	8e\	8g\	.	8cc\	O-	2C\	2e\	2g\	8cc\	.	4C/	2e\	.	4g\	4cc\yy	-cel-	4cc\	-cel-	2C/	8c\	8c\	8g\	8ee\	8gg\
.	.	4C/	4c\	4e\	.	4cc\	-san-	.	.	.	4cc\	.	.	.	.	.	.	.	.	.	.	4C/	4c\	4g\	4gg\	4ee\
.	.	.	.	.	.	.	.	.	.	.	.	.	4C/	.	.	4g\	4cc\yy	-sis	4cc\	-sis	.	.	.	.	.	.
.	.	8C/	8e\	8g\	.	8cc\	-na	.	.	.	8cc\	.	.	.	.	.	.	.	.	.	.	8C/	8c\	8c\	8ee\	8gg\
*	*	*	*	*	*	*	*Xij	*	*	*	*	*	*	*	*	*	*	*ij	*	*ij	*	*	*	*	*	*
2D\	.	2D\	2d\	8f\	in	8a\	in	1r	2d\	1r	2a\	.	8D\	4e\	.	8f\	8a\yy	O-	8a\	O-	2D\	4.F/	4f\	2f\	8dd\	8ff\
.	.	.	.	8f\	ex-	8a\	ex-	.	.	.	.	.	4D\	.	.	4d\	4f\yy	-san-	4f\	-san-	.	.	.	.	4dd\	4ff\
.	.	.	.	4f\	-cel-	4a\	-cel-	.	.	.	.	.	.	2A\	.	.	.	.	.	.	.	.	4a\	.	.	.
.	.	.	.	.	.	.	.	.	.	.	.	.	8D\	.	.	8f\	8a\yy	-na	8a\	-na	.	8A/	.	.	8dd\	8ff\
2AA\	.	2AA/	2c\	2e\	-sis	2cc\	-sis	.	2r	.	2r	.	8AA/	.	.	8e\	8cc\yy	O-	8cc\	O-	2AA/	2A\	2r	2e\	8cc\	8aa\
.	.	.	.	.	.	.	.	.	.	.	.	.	4AA/	.	.	4c\	4a\yy	-san-	4a\	-san-	.	.	.	.	4cc\	4aa\
.	.	.	.	.	.	.	.	.	.	.	.	.	.	4A\	.	.	.	.	.	.	.	.	.	.	.	.
.	.	.	.	.	.	.	.	.	.	.	.	.	8AA/	.	.	8e\	8cc\yy	-na	8cc\	-na	.	.	.	.	8cc\	8aa\
=9	=9	=9	=9	=9	=9	=9	=9	=9	=9	=9	=9	=9	=9	=9	=9	=9	=9	=9	=9	=9	=9	=9	=9	=9	=9	=9
!	!	!	!	!	!	!	!	!	!	!	!	!	!	!	!	!	!	!	!	!	!	!	!LO:TX:t=P:problem:korekta z 8e\	!	!	!
2BB-X\	.	2BB-X/	2B-X\	8f\	.	8dd\	.	8B-X\	8d\	8f\	8b-X\	.	2BB-X/	4F/	.	4.d\	4.b-X\yy	in	4.b-X\	in	2BB-X/	8D/	8f\	8d\	4.dd\	4.ff\
.	.	.	.	4f\	.	4dd\	.	4B-\	4d\	4d\	4b-\	.	.	.	.	.	.	.	.	.	.	4F/	4f\	4d\	.	.
.	.	.	.	.	.	.	.	.	.	.	.	.	.	4F/	.	.	.	.	.	.	.	.	.	.	.	.
.	.	.	.	8f\	.	8b-X\	.	8B-\	8d\	8f\	8b-\	.	.	.	.	8f\	8b-\yy	ex-	8b-\	ex-	.	8F/	8f\	8d\	8dd\	8ff\
2FF/	.	2F\	2c\	8f\	.	8a\	.	8F\	8c\	8f\	8a\	.	2F\	2r	.	2f\	2a\yy	-cel-	2a\	-cel-	2FF/	2F/	2a\	2f\	8aa\	8ff\
.	.	.	.	4f\	.	4a\	.	4F\	4A\	4f\	4a\	.	.	.	.	.	.	.	.	.	.	.	.	.	4ff\	4cc\
.	.	.	.	8f\	.	8a\	.	8F\	8c\	8f\	8a\	.	.	.	.	.	.	.	.	.	.	.	.	.	8aa\	8ff\
!	!	!	!	!	!	!	!	!	!	!	!	!	!	!	!	!	!	!	!	!	!	!LO:SIC:v:s=2B-\	!	!	!	!
2GG/	.	8G\	8B-X\	2d\	.	8g/	.	2G\	2B-X\	4.d\	4.g\	.	2G\	8B-X\	O-	2d\	2g\yy	-sis	2g\	-sis	2GG/	2B\	2d\	2r	8gg\	8dd\
*	*	*	*	*	*	*	*	*	*	*	*	*	*	*	*	*	*	*Xij	*	*Xij	*	*	*	*	*	*
.	.	4G\	4B-\	.	.	4g/	.	.	.	.	.	.	.	4G\	-san-	.	.	.	.	.	.	.	.	.	4gg\	4dd\
.	.	8G\	8B-\	.	.	8g/	.	.	.	8d\	8g\	.	.	8B-\	-na	.	.	.	.	.	.	.	.	.	8gg\	8dd\
*	*	*	*	*	*	*	*	*	*	*	*	*	*	*	*ij	*	*	*	*	*	*	*	*	*	*	*
2D\	.	8E\	8A\	8d\	.	8f/	.	2D\	2A\	4d\	4f\	.	2D\	8A\	O-	8f\	2ryy	.	2r	.	2D\	2A\	8d\	8f\	2ff\	2dd\
.	.	4D\	4A\	4d\	.	4f/	.	.	.	.	.	.	.	4A\	-san-	4d\	.	.	.	.	.	.	4d\	4f\	.	.
.	.	.	.	.	.	.	.	.	.	4d\	4f\	.	.	.	.	.	.	.	.	.	.	.	.	.	.	.
.	.	8D\	8A\	8d\	.	8f/	.	.	.	.	.	.	.	8A\	-na	8f\	.	.	.	.	.	.	8d\	8f\	.	.
*	*	*	*	*	*	*	*	*	*	*	*	*	*	*	*Xij	*	*	*	*	*	*	*	*	*	*	*
!!pagebreak:original
=10	=10	=10	=10	=10	=10	=10	=10	=10	=10	=10	=10	=10	=10	=10	=10	=10	=10	=10	=10	=10	=10	=10	=10	=10	=10	=10
2E-X\	.	4.E-X\	4.G/	4.B-X/	.	4e-X/	.	2E-X\	2G/	8g\	8e-/	.	8E-X\	8G/	.	8g\	8e-X/yy	.	8e-X/	.	2E-X\	2G\	8g\	2e-X\	8gg\	8ee-X\
!	!	!	!	!	!	!	!	!	!	!	!	!	!	!	!	!	!	!	!	!	!	!	!LO:N:vis=8	!	!	!
.	.	.	.	.	.	.	.	.	.	4e-X\	4g/	.	4E-\	8G/	.	4e-X\	4g/yy	.	4g/	.	.	.	4g\	.	4gg\	4gg\
.	.	.	.	.	.	4e-/	.	.	.	.	.	.	.	4G/	.	.	.	.	.	.	.	.	.	.	.	.
.	.	8E-\	8G/	8B-/	.	.	.	.	.	8g\	8e-/	.	8E-\	.	.	8g\	8e-/yy	.	8e-/	.	.	.	8g\	.	8gg\	8ee-\
2BB-X\	.	4BB-X/	4B-X\	4d\	.	2r	.	2BB-X/	2B-X\	8f\	8d/	.	8BB-X/	4B-X\	.	8f\	8d/yy	.	8d/	.	2BB-X/	2r	2d\	8f\	8bb-X\	8dd\
.	.	.	.	.	.	.	.	.	.	4f\	4d/	.	4BB-/	.	.	4f\	4d/yy	.	4d/	.	.	.	.	4f\	4bb-\	4dd\
.	.	4BB-/	4B-\	4d\	.	.	.	.	.	.	.	.	.	4B-\	.	.	.	.	.	.	.	.	.	.	.	.
.	.	.	.	.	.	.	.	.	.	8f\	8d/	.	8BB-/	.	.	8f\	8d/yy	.	8d/	.	.	.	.	8f\	8bb-\	8dd\
2F\	.	8F\	8A\	8f\	.	8cc\	.	8F\	8A\	8f\	2c/	.	8F\	8A\	.	2f\	8c/yy	.	8c/	.	2F\	8A\	8a\	2f\	8aa\	8cc\
.	.	4F\	4A\	4f\	.	4cc\	.	4F\	4A\	4c\	.	.	4F\	4A\	.	.	4c/yy	.	4c/	.	.	4A\	4f\	.	4ff\	4cc\
.	.	8F\	8A\	8f\	.	8cc\	.	8F\	8A\	8f\	.	.	8F\	8A\	.	.	8c/yy	.	8c/	.	.	8A\	8f\	.	8aa\	8cc\
!!LO:TX:t=P:problem:mimo że źródło wskazuje na akord c-moll więcej sensu będzie miał c-dur
!	!	!	!LO:SIC:v:s=8En/	!	!	!	!	!	!	!	!	!	!	!	!	!	!	!	!	!	!	!	!	!LO:SIC:v:s=8en\	!	!LO:SIC:v:s=8een\
2C\	.	8C/	8E-X/	8g\	.	8cc\	.	4.C/	4G\	4.g\	4.cc\	.	4.C/	8G\	.	8g\	4.c/yy	in	4.c/	in	2C\	8c\	8g\	8e-\	8gg\	8ee-\
!	!	!	!	!LO:SIC:v:s=4en\	!	!	!	!	!	!	!	!	!	!	!	!LO:SIC:v:s=4en\	!	!	!	!	!	!	!	!LO:SIC:v:s=4e\	!	!
.	.	4C/	4G\	4e-X\	.	4cc\	.	.	.	.	.	.	.	4c\	.	4e-\	.	.	.	.	.	4c\	4g\	4e-\	4ee\	4gg\
.	.	.	.	.	.	.	.	.	4c\	.	.	.	.	.	.	.	.	.	.	.	.	.	.	.	.	.
!	!	!	!	!	!	!	!	!	!	!	!	!	!	!	!	!	!	!	!	!	!	!	!	!LO:SIC:v:s=8e\	!	!LO:SIC:v:s=8ee\
.	.	8C/	8c\	8g\	.	8ee\	.	8C/	.	8g\	8ee\	.	8C/	8c\	.	8g\	8cc\yy	ex-	8cc\	ex-	.	8c\	8g\	8e-\	8ee\	8ee-\
=11	=11	=11	=11	=11	=11	=11	=11	=11	=11	=11	=11	=11	=11	=11	=11	=11	=11	=11	=11	=11	=11	=11	=11	=11	=11	=11
2D\	.	4.D\	4.c\	4.f\	.	4.dd\	.	2D\	4.c\	4f\	2dd\	.	2D\	(4d\	.	8f\	4a\yy	-cel-	4a\	-cel-	2D\	4c\	2f\	4a\	8f/	8ff\
.	.	.	.	.	.	.	.	.	.	.	.	.	.	.	.	4d\	.	.	.	.	.	.	.	.	4f/	4ff\
.	.	.	.	.	.	.	.	.	.	4d\	.	.	.	4c\)	.	.	4dd\yy	-sis	4dd\	-sis	.	4B\	.	4d\	.	.
.	.	8D\	8B\	8f\	.	8dd\	.	.	8B\	.	.	.	.	.	.	8f\	.	.	.	.	.	.	.	.	8f/	8ff\
2C\	.	2C\	2c\	2e\	.	2ee\	.	2C\	2c\	8g\	2ee\	.	2C\	2c\	.	8e\	8ee\yy	o-	8ee\	o-	2C\	8c\	2r	8g\	8g/	8ee\
.	.	.	.	.	.	.	.	.	.	4e\	.	.	.	.	.	8e\	4cc\yy	-san-	4cc\	-san-	.	4c\	.	4g\	4g/	4ee\
.	.	.	.	.	.	.	.	.	.	.	.	.	.	.	.	4c\	.	.	.	.	.	.	.	.	.	.
.	.	.	.	.	.	.	.	.	.	8g\	.	.	.	.	.	.	8ee\yy	-na	8ee\	-na	.	8c\	.	8g\	8g/	8ee\
2c\	.	2C\	2G\	2e\	.	2cc\	.	8c\	8e\	4e\	2r	.	2r	8e\	.	2c\	4.ee\yy	in	4.ee\	in	2r	8C/	8g\	8e\	4.cc\	4.cc\
.	.	.	.	.	.	.	.	4c\	4e\	.	.	.	.	4c\	.	.	.	.	.	.	.	4C/	4g\	4e\	.	.
.	.	.	.	.	.	.	.	.	.	8g\	.	.	.	.	.	.	.	.	.	.	.	.	.	.	.	.
.	.	.	.	.	.	.	.	8c\	8e\	4.g\	.	.	.	8c\	.	.	8ee\yy	ex-	8ee\	ex-	.	8C/	8g\	8e\	8cc\	8cc\
2G\	.	2r	2r	2r	.	2r	.	8G\	8B\	.	8dd\	.	8G\	8B\	.	2r	4dd\yy	-cel-	4dd\	-cel-	2G\	8G\	4g\	4g\	4dd\	4b\
.	.	.	.	.	.	.	.	4G\	4B\	.	4b\	.	4G\	4d\	.	.	.	.	.	.	.	4B\	.	.	.	.
.	.	.	.	.	.	.	.	.	.	8g\	.	.	.	.	.	.	4dd\yy	-sis	4dd\	-sis	.	.	4g\	4g\	4dd\	4b\
.	.	.	.	.	.	.	.	8G\	8B\	8r	8dd\	.	8G\	8B\	.	.	.	.	.	.	.	8B\	.	.	.	.
=12	=12	=12	=12	=12	=12	=12	=12	=12	=12	=12	=12	=12	=12	=12	=12	=12	=12	=12	=12	=12	=12	=12	=12	=12	=12	=12
2A\	.	8A\	1r	1r	.	8cc\	.	8A\	2c\	4e\	8cc\	.	8A\	4.c\	.	8a\	8cc\yy	O-	8cc\	O-	2A\	2c\	8e\	8a\	8cc\	2r
.	.	4A\	.	.	.	4a\	.	4A\	.	.	4a\	.	4A\	.	.	4e\	4a\yy	-san-	4a\	-san-	.	.	4a\	4e\	4a\	.
.	.	.	.	.	.	.	.	.	.	4e\	.	.	.	.	.	.	.	.	.	.	.	.	.	.	.	.
.	.	8A\	.	.	.	8cc\	.	8A\	.	.	8cc\	.	8A\	8c\	.	8a\	8cc\yy	-na	8cc\	-na	.	.	8e\	8a\	8cc\	.
*	*	*	*	*	*	*	*	*	*	*	*	*	*	*	*	*	*	*	*	*ij	*	*	*	*	*	*
2E\	5	4.E\	.	.	.	8b\	.	4.E\	2r	2r	4.b\	.	8E\	2e\	.	8g\	8b\yy	O-	8b\	O-	2E\	2G/	4e\	8g\	8b\	8ee\
.	.	.	.	.	.	4g\	.	.	.	.	.	.	4E\	.	.	4e\	4g\yy	-san-	4g\	-san-	.	.	.	4e\	4g\	4gg\
.	.	.	.	.	.	.	.	.	.	.	.	.	.	.	.	.	.	.	.	.	.	.	4e\	.	.	.
.	.	8E\	.	.	.	8b\	.	8E\	.	.	8b\	.	8E\	.	.	8g\	8b\yy	-na	8b\	-na	.	.	.	8g\	8b\	8ee\
*	*	*	*	*	*	*	*	*	*	*	*	*	*	*	*	*	*	*	*	*Xij	*	*	*	*	*	*
2F\	.	2F\	8f\	8a\	.	4a\	.	2F\	8f\	8a\	2a\	.	4.F\	2.c\	.	4.f\	8a\yy	in	8a\	in	2F\	2A\	2c\	2f\	8a/	8aa\
.	.	.	4c\	4f\	.	.	.	.	4c\	4f\	.	.	.	.	.	.	8a\yy	ex-	8a\	ex-	.	.	.	.	4a/	4ff\
.	.	.	.	.	.	4cc\	.	.	.	.	.	.	.	.	.	.	4a\yy	-cel-	4a\	-cel-	.	.	.	.	.	.
.	.	.	8f\	8a\	.	.	.	.	8f\	8a\	.	.	8F\	.	.	8f\	.	.	.	.	.	.	.	.	8a/	8ff\
2C\	.	2C\	8e\	8g\	.	4cc\	.	2C\	8e\	8g\	2cc\	.	4C\	.	.	4g\	2cc\yy	-sis	2cc\	-sis	2C\	2r	2c\	2e\	2cc\	8gg\
.	.	.	4c\	4e\	.	.	.	.	4c\	4e\	.	.	.	.	.	.	.	.	.	.	.	.	.	.	.	4ee\
.	.	.	.	.	.	4ee\	.	.	.	.	.	.	4C\	4e\	.	4g\	.	.	.	.	.	.	.	.	.	.
.	.	.	8c\	8g\	.	.	.	.	8e\	8g\	.	.	.	.	.	.	.	.	.	.	.	.	.	.	.	8ee\
!!pagebreak:original
=13	=13	=13	=13	=13	=13	=13	=13	=13	=13	=13	=13	=13	=13	=13	=13	=13	=13	=13	=13	=13	=13	=13	=13	=13	=13	=13
2D\	.	8D\	8A\	8f\	.	8dd\	.	8D\	8e\	8f\	8a\	.	8D/	8d\	.	8f\	8a\yy	o-	8a\	o-	2D\	8A\	8A/	8d\	8ff\	8aa\
.	.	4D\	4A\	4f\	.	4dd\	.	4D\	4c\	4f\	4dd\	.	4D/	4A\	.	4f\	4dd\yy	-san-	4dd\	-san-	.	4A\	4a\	4d\	4ff\	4dd\
.	.	8D\	8A\	8f\	.	8dd\	.	8D\	8c\	8f\	8dd\	.	8D/	8A\	.	8f\	8dd\yy	-na	8dd\	-na	.	8A\	8a\	8d\	8aa\	8dd\
2E\	.	4.E\	4.e\	4.e\	.	4.cc\	.	4.E\	4.e\	4.g\	4.cc\	.	4.E\	4.e\	.	4.g\	4.cc\yy	in	4.cc\	in	2E\	4.e\	4.g\	4.e\	8ee\	8cc\
.	.	.	.	.	.	.	.	.	.	.	.	.	.	.	.	.	.	.	.	.	.	.	.	.	4ee\	4cc\
.	.	8E\	8e\	8g\	.	8cc\	.	8E\	8e\	8g\	8cc\	.	8E\	8e\	.	8g\	8cc\yy	ex-	8cc\	ex-	.	8e\	8g\	8e\	8gg\	8cc\
4F\	.	(4F\	2d\	(4a\	.	(4cc\	.	(4F\	2d\	(4a\	(4cc\	.	(4F\	2d\	.	(4a\	(4cc\yy	-cel-	(4cc\	-cel-	4F\	2d\	4a\	4a\	4ff\	4cc\
4G\	.	4G\)	.	4g\)	.	4b\)	.	4G\)	.	4g\)	4b\)	.	4G\)	.	.	4g\)	4b\)yy	.	4b\)	.	4G\	.	4g\	4g\	4dd\	4b\
4C\	.	4C\	4c\	4g\	.	4cc\	.	4C\	4c\	4g\	4cc\	.	4C\	4c\	.	4g\	4cc\yy	-sis	4cc\	-sis	4C\	4c\	4g\	4g\	4ee\	4cc\
4r	.	4r	4r	4r	.	4r	.	4r	4r	4r	4r	.	4r	4r	.	4r	4ryy	.	4r	.	4r	4r	4r	4r	4r	4r
=14	=14	=14	=14	=14	=14	=14	=14	=14	=14	=14	=14	=14	=14	=14	=14	=14	=14	=14	=14	=14	=14	=14	=14	=14	=14	=14
1C	.	2.C/	2c\	2.g\	.	2.ee\	.	2.C/	2.G/	2.e\	2.cc\	.	2.C/	2c\	.	2.g\	2.ee\yy	in	2.ee\	in	2.C/	0G	1g	1e	1cc	1ee
.	.	.	1c	.	.	.	.	.	.	.	.	.	.	1c	.	.	.	.	.	.	.	.	.	.	.	.
.	.	4C/	.	4g\	.	4ee\	.	4C/	4G/	4e\	4cc\	.	4C/	.	.	4g\	4ee\yy	ex-	4ee\	ex-	4C/	.	.	.	.	.
1GG	.	1GG	.	1g	.	1dd	.	1GG	1G	1g	1dd	.	1G	.	.	1g	1ddyy	-cel-	1dd	-cel-	1GG	.	1g	1g	2dd\	1dd
.	.	.	2B\	.	.	.	.	.	.	.	.	.	.	2B\	.	.	.	.	.	.	.	.	.	.	2gg\	.
=15	=15	=15	=15	=15	=15	=15	=15	=15	=15	=15	=15	=15	=15	=15	=15	=15	=15	=15	=15	=15	=15	=15	=15	=15	=15	=15
0C;<	.	0C;<	0c	0g	.	0ee	.	0C	0G	0e	0cc	.	0C	0c	.	0g	0eeyy	-sis	0ee	-sis	0C	0G	0g	0e	0gg	0ee;
==	==	==	==	==	==	==	==	==	==	==	==	==	==	==	==	==	==	==	==	==	==	==	==	==	==	==
*-	*-	*-	*-	*-	*-	*-	*-	*-	*-	*-	*-	*-	*-	*-	*-	*-	*-	*-	*-	*-	*-	*-	*-	*-	*-	*-
!!!system-decoration: (g1)[(g2)][(g3)][(g4)]s20
!!!RDF**kern: > = above
!!!RDF**kern: < = below
!!!ENC: Anastazja Marusiak
!!!END: 2022-10-21
!!!ENC: Krzysztof Stępień
!!!END: 2022-11-25
!!!YEC: Copyright 2022 Narodowy Instytut Fryderyka Chopina (https://polishscores.org)
!!!YEM: License CC-BY-4.0 (https://creativecommons.org/licenses/by/4.0)
